packages/calcite-ui-icons/icons/circle-area-hash-filled-32.svg

<?xml version="1.0" encoding="UTF-8"?><svg id="icons" xmlns="http://www.w3.org/2000/svg" viewBox="0 0 32 32"><defs><style>.cls-1{fill:none;}</style></defs><rect class="cls-1" width="32" height="32"/><path d="M16.5,2c-7.99512,0-14.5,6.50488-14.5,14.5s6.50488,14.5,14.5,14.5,14.46997-6.50488,14.46997-14.5S24.49512,2,16.5,2ZM16.5,30c-7.44434,0-13.5-6.05566-13.5-13.5S9.05566,3,16.5,3s13.5,6.05566,13.5,13.5-6.05566,13.5-13.5,13.5ZM16.5,7c-5.23828,0-9.47,4.26172-9.47,9.5s4.23172,9.5,9.47,9.5,9.5-4.26172,9.5-9.5-4.26172-9.5-9.5-9.5ZM13.87244,8.42053l-5.4519,5.4519c.8399-2.57544,2.87646-4.612,5.4519-5.4519ZM8,16.5c0-.28192.01532-.5603.0423-.83527l7.62244-7.62244c.27496-.02698.55334-.0423.83527-.0423.55847,0,1.10333.05762,1.63202.16095l-9.97107,9.97107c-.10333-.52869-.16095-1.07355-.16095-1.63202ZM9.29877,20.9942c-.34186-.54572-.62347-1.13129-.83557-1.75037l10.78064-10.78064c.61908.2121,1.20465.49371,1.75037.83557l-11.69543,11.69543ZM9.88361,21.82343l11.93982-11.93982c.47601.38367.9093.81696,1.29297,1.29297l-11.93982,11.93982c-.47601-.38367-.9093-.81696-1.29297-1.29297ZM19.12756,24.57947l5.4519-5.4519c-.8399,2.57544-2.87646,4.612-5.4519,5.4519ZM25,16.5c0,.28192-.01532.5603-.0423.83527l-7.62244,7.62244c-.27496.02698-.55334.0423-.83527.0423-.55847,0-1.10333-.05762-1.63202-.16095l9.97107-9.97107c.10333.52869.16095,1.07355.16095,1.63202ZM24.5368,13.75616l-10.78064,10.78064c-.61908-.2121-1.20465-.49371-1.75037-.83557l11.69543-11.69543c.34186.54572.62347,1.13129.83557,1.75037Z"/></svg>

<svg xmlns="http://www.w3.org/2000/svg" viewBox="0 0 32 32"><path fill="none" d="M0 0h32v32H0z"/><path d="M16.5 2C8.505 2 2 8.505 2 16.5S8.505 31 16.5 31s14.47-6.505 14.47-14.5S24.495 2 16.5 2zm0 28C9.056 30 3 23.944 3 16.5S9.056 3 16.5 3 30 9.056 30 16.5 23.944 30 16.5 30zm0-23c-5.238 0-9.47 4.262-9.47 9.5S11.262 26 16.5 26s9.5-4.262 9.5-9.5S21.738 7 16.5 7zm-2.628 1.42l-5.451 5.452a8.534 8.534 0 0 1 5.451-5.451zM8 16.5c0-.282.015-.56.042-.835l7.623-7.623a8.496 8.496 0 0 1 2.467.119l-9.971 9.971A8.496 8.496 0 0 1 8 16.5zm1.299 4.494a8.46 8.46 0 0 1-.836-1.75l10.78-10.78a8.46 8.46 0 0 1 1.751.835L9.3 20.994zm.585.83l11.94-11.94c.475.383.909.817 1.292 1.293l-11.94 11.94a8.559 8.559 0 0 1-1.292-1.294zm9.244 2.755l5.451-5.451a8.534 8.534 0 0 1-5.451 5.451zM25 16.5c0 .282-.015.56-.042.835l-7.623 7.623A8.546 8.546 0 0 1 16.5 25a8.496 8.496 0 0 1-1.632-.16l9.971-9.972c.103.529.161 1.074.161 1.632zm-.463-2.744l-10.78 10.78a8.46 8.46 0 0 1-1.751-.835L23.7 12.006a8.46 8.46 0 0 1 .836 1.75z"/></svg>
